!!!OTL: BAEH LAEMMEL BAEH
!!!ARE: Europa, Mitteleuropa, Deutschland, Breslau
!!!SCT: K0260
!!!YEM: Copyright 1995, estate of Helmut Schaffrath.
**kern
*ICvox
*Ivox
*M2/4
*k[b-]
*F:
=1
{4cc
8a
8g
=2
4f
8r}
{8f
=3
8cc
8cc
8a
8g
=4
4f
8r}
{8f
=5
8g
8g
8g
8g
=6
8.a
16g
8f}
{8f
=7
8g
8g
8g
8g
=8
8.a
16g
8f}
{8f
=9
8cc
8cc
8a
8g
=10
4f
4r}
==
!!!AGN: Kinder -, Kose -, Scherz - Lied
!!!ONB: ESAC (Essen Associative Code) Database: KINDER
!!!AMT: simple duple
!!!AIN: vox
!!!EED: Helmut Schaffrath
!!!EEV: 1.0
*-
